%
(Header)
(Generated by gcodetools from Inkscape.)
(Using default header. To add your own header create file header in the output dir.)
M3
(Header end.)
G21 (All units in mm)

(Start cutting path id path34)
(Change tool to Default tool)

G00 Z2.000000
G00 X25.107422 Y31.160160

G01 Z0.000000 F100.0(Penetrate)
G03 X24.659979 Y31.060634 Z0.000000 I0.234721 J-2.110804 F400.000000
G03 X24.299875 Y30.888604 Z0.000000 I0.541339 J-1.596072
G03 X23.995356 Y30.634614 Z0.000000 I0.812890 J-1.284153
G03 X23.777344 Y30.318360 Z0.000000 I1.003042 J-0.924727
G03 X23.675963 Y30.000977 Z0.000000 I0.977589 J-0.487152
G03 X23.654819 Y29.520109 Z0.000000 I2.124847 J-0.334332
G03 X23.722510 Y29.031370 Z0.000000 I3.546869 J0.242194
G03 X23.917969 Y28.257810 Z0.000000 I9.662139 J2.029899
G01 X23.511719 Y28.582030 Z0.000000
G03 X22.957664 Y29.066155 Z0.000000 I-4.607621 J-4.714069
G03 X22.555292 Y29.326919 Z0.000000 I-1.691069 J-2.168585
G01 X21.781250 Y29.500000 Z0.000000
G03 X21.304275 Y29.305035 Z0.000000 I0.161275 J-1.075489
G03 X20.762235 Y28.794304 Z0.000000 I1.705996 J-2.353575
G03 X20.359711 Y28.162946 Z0.000000 I2.436790 J-1.997576
G03 X20.203125 Y27.574220 Z0.000000 I1.464591 J-0.704731
G01 X20.226421 Y27.055576 Z0.000000
G01 X20.453125 Y26.638670 Z0.000000
G03 X20.649644 Y26.422711 Z0.000000 I1.247224 J0.937561
G03 X20.899442 Y26.239499 Z0.000000 I0.986143 J1.082640
G03 X21.184654 Y26.100085 Z0.000000 I1.106402 J1.902018
G03 X21.697266 Y25.914060 Z0.000000 I2.963943 J7.368193
G01 X22.167969 Y25.742190 Z0.000000
G01 X21.781250 Y25.630860 Z0.000000
G03 X21.181095 Y25.437857 Z0.000000 I1.453504 J-5.549370
G03 X20.768038 Y25.243160 Z0.000000 I1.100350 J-2.869939
G03 X20.401995 Y24.981021 Z0.000000 I1.041231 J-1.840580
G03 X20.203125 Y24.738280 Z0.000000 I0.670835 J-0.752429
G01 X20.080078 Y24.187500 Z0.000000
G03 X20.138177 Y23.694973 Z0.000000 I2.315744 J0.023478
G03 X20.304432 Y23.191283 Z0.000000 I2.751191 J0.628809
G03 X20.560551 Y22.726014 Z0.000000 I2.697789 J1.181943
G03 X20.902344 Y22.310550 Z0.000000 I2.352722 J1.587206
G01 X22.011861 Y21.773075 Z0.000000
G03 X22.506933 Y21.939851 Z0.000000 I-0.111889 J1.150336
G03 X23.287109 Y22.542970 Z0.000000 I-2.466115 J3.996256
G01 X23.730469 Y22.882810 Z0.000000
G03 X23.591964 Y22.336424 Z0.000000 I6.233252 J-1.870836
G03 X23.504017 Y21.805890 Z0.000000 I6.475228 J-1.345958
G03 X23.464371 Y21.267716 Z0.000000 I5.349388 J-0.664620
G03 X23.486328 Y20.917970 Z0.000000 I2.035676 J-0.047764
G01 X24.593750 Y20.015620 Z0.000000
G03 X24.909694 Y19.963985 Z0.000000 I0.500782 J2.071777
G03 X25.337974 Y19.945920 Z0.000000 I0.416201 J4.781314
G03 X25.768244 Y19.968285 Z0.000000 I-0.010976 J4.361285
G03 X26.005859 Y20.019620 Z0.000000 I-0.110592 J1.087487
G03 X26.218274 Y20.107747 Z0.000000 I-0.531067 J1.580110
G03 X26.426332 Y20.228770 Z0.000000 I-0.832261 J1.670140
G03 X26.617614 Y20.375131 Z0.000000 I-1.087971 J1.620075
G03 X26.796875 Y20.550870 Z0.000000 I-1.358566 J1.565083
G01 X27.083984 Y21.212980 Z0.000000
G01 X26.835938 Y22.593840 Z0.000000
G01 X26.707031 Y23.056730 Z0.000000
G01 X26.845703 Y22.888760 Z0.000000
G01 X27.048456 Y22.641384 Z0.000000
G03 X27.196844 Y22.479041 Z0.000000 I6.130101 J5.454163
G03 X27.363281 Y22.306730 Z0.000000 I6.175718 J5.798665
G03 X27.731891 Y21.980265 Z0.000000 I2.741262 J2.723811
G03 X28.023114 Y21.797848 Z0.000000 I1.041180 J1.338538
G03 X28.343457 Y21.686347 Z0.000000 I0.610591 J1.238314
G03 X28.699219 Y21.648530 Z0.000000 I0.355762 J1.654491
G01 X29.208984 Y21.796970 Z0.000000
G03 X29.448056 Y21.980929 Z0.000000 I-2.281368 J3.212185
G03 X29.625562 Y22.146478 Z0.000000 I-1.376802 J1.654183
G03 X29.783785 Y22.330942 Z0.000000 I-1.600839 J1.533199
G03 X29.966797 Y22.587980 Z0.000000 I-3.538604 J2.713169
G03 X30.229650 Y23.053043 Z0.000000 I-3.237022 J2.136376
G03 X30.382562 Y23.454066 Z0.000000 I-2.386635 J1.139702
G03 X30.457275 Y23.872481 Z0.000000 I-1.922171 J0.559102
G03 X30.431641 Y24.185640 Z0.000000 I-1.034922 J0.072914
G01 X29.852512 Y24.894661 Z0.000000
G03 X29.354946 Y25.168001 Z0.000000 I-1.602419 J-2.327385
G03 X28.707031 Y25.373140 Z0.000000 I-1.399321 J-3.293878
G01 X28.289062 Y25.488370 Z0.000000
G01 X28.708984 Y25.578170 Z0.000000
G03 X29.409519 Y25.721774 Z0.000000 I-0.546398 J4.445938
G03 X29.879130 Y25.918979 Z0.000000 I-0.615304 J2.123003
G03 X30.274374 Y26.225321 Z0.000000 I-0.841762 J1.494186
G03 X30.550781 Y26.615280 Z0.000000 I-1.165023 J1.118722
G01 X30.500234 Y27.652179 Z0.000000
G03 X30.232440 Y28.279017 Z0.000000 I-3.396751 J-1.080514
G03 X29.857422 Y28.794970 Z0.000000 I-2.176057 J-1.187391
G03 X29.439092 Y29.128953 Z0.000000 I-1.398315 J-1.322480
G03 X29.035670 Y29.284471 Z0.000000 I-0.665017 J-1.124074
G03 X28.606729 Y29.294881 Z0.000000 I-0.243501 J-1.191087
G03 X28.148438 Y29.144580 Z0.000000 I0.225612 J-1.461783
G03 X27.925406 Y29.017223 Z0.000000 I1.556522 J-2.984796
G03 X27.698215 Y28.863818 Z0.000000 I1.963905 J-3.153452
G03 X27.482164 Y28.694636 Z0.000000 I2.414669 J-3.306163
G03 X27.248047 Y28.486380 Z0.000000 I3.453194 J-4.117733
G01 X27.044922 Y28.343800 Z0.000000
G01 X27.115232 Y28.593800 Z0.000000
G03 X27.222509 Y28.932798 Z0.000000 I-1.661985 J0.712416
G03 X27.292832 Y29.409424 Z0.000000 I-3.833713 J0.809139
G03 X27.305040 Y29.890662 Z0.000000 I-4.026040 J0.342904
G03 X27.257810 Y30.273490 Z0.000000 I-2.180615 J-0.074699
G01 X26.624998 Y30.986380 Z0.000000
G03 X26.359613 Y31.060824 Z0.000000 I-0.571231 J-1.526119
G03 X25.884609 Y31.133336 Z0.000000 I-1.208420 J-6.323924
G03 X25.406555 Y31.170596 Z0.000000 I-0.750933 J-6.549214
G03 X25.107420 Y31.160210 Z0.000000 I-0.081470 J-1.966447
G01 X25.107422 Y31.160160 Z0.000000
G00 Z2.000000

(End cutting path id path34)


(Start cutting path id path34)
(Change tool to Default tool)

G00 Z2.000000
G00 X24.683594 Y30.800780

G01 Z0.000000 F100.0(Penetrate)
G02 X25.092745 Y30.889845 Z0.000000 I0.512397 J-1.369553 F400.000000
G02 X25.735449 Y30.889765 Z0.000000 I0.320789 J-4.531988
G02 X26.372114 Y30.797077 Z0.000000 I-0.309742 J-4.360533
G02 X26.718750 Y30.656250 Z0.000000 I-0.242676 J-1.094354
G01 X27.042969 Y29.687500 Z0.000000
G02 X27.004055 Y29.204924 Z0.000000 I-3.235516 J0.018050
G02 X26.877495 Y28.707643 Z0.000000 I-2.704484 J0.423555
G02 X26.670146 Y28.219879 Z0.000000 I-4.240813 J1.514822
G02 X26.195312 Y27.316410 Z0.000000 I-19.828626 J9.844768
G01 X25.931641 Y26.757810 Z0.000000
G01 X26.142578 Y26.695310 Z0.000000
G02 X26.227578 Y26.825597 Z0.000000 I1.777754 J-1.066945
G02 X26.512823 Y27.221529 Z0.000000 I22.830994 J-16.147652
G02 X26.797484 Y27.603576 Z0.000000 I26.255535 J-19.265746
G02 X26.994141 Y27.855470 Z0.000000 I8.382871 J-6.341908
G02 X27.211472 Y28.095371 Z0.000000 I2.174395 J-1.751431
G02 X27.557697 Y28.414273 Z0.000000 I5.095889 J-5.185117
G02 X27.923907 Y28.710115 Z0.000000 I4.739804 J-5.492593
G02 X28.191406 Y28.888670 Z0.000000 I1.658554 J-2.195090
G01 X28.655707 Y29.031374 Z0.000000
G01 X29.123047 Y29.003910 Z0.000000
G02 X29.423266 Y28.848812 Z0.000000 I-0.336364 J-1.019199
G02 X29.734604 Y28.557293 Z0.000000 I-1.078060 J-1.463366
G02 X29.980540 Y28.203204 Z0.000000 I-1.763096 J-1.487030
G02 X30.199219 Y27.728520 Z0.000000 I-2.786812 J-1.571550
G01 X30.296879 Y26.701170 Z0.000000
G02 X30.127207 Y26.450243 Z0.000000 I-0.951761 J0.460736
G02 X29.858579 Y26.214320 Z0.000000 I-1.184632 J1.077957
G02 X29.544899 Y26.038384 Z0.000000 I-1.054631 J1.512721
G02 X29.171879 Y25.916020 Z0.000000 I-0.818488 J1.865368
G02 X28.864632 Y25.858096 Z0.000000 I-1.000304 J4.462073
G02 X28.328426 Y25.785040 Z0.000000 I-2.450696 J15.983013
G02 X27.794806 Y25.729132 Z0.000000 I-2.223240 J18.645432
G02 X27.318363 Y25.695310 Z0.000000 I-1.117384 J12.367617
G01 X26.681645 Y25.599610 Z0.000000
G01 X27.306645 Y25.357420 Z0.000000
G02 X27.840196 Y25.288546 Z0.000000 I-0.709382 J-7.596474
G02 X28.409362 Y25.178201 Z0.000000 I-1.695637 J-10.269318
G02 X28.974990 Y25.032132 Z0.000000 I-1.904871 J-8.544467
G02 X29.294926 Y24.914060 Z0.000000 I-0.713961 J-2.427093
G01 X30.132816 Y24.281250 Z0.000000
G01 X29.472660 Y22.375000 Z0.000000
G01 X28.619145 Y21.898440 Z0.000000
G02 X28.242092 Y21.995396 Z0.000000 I0.134611 J1.305128
G02 X27.818648 Y22.243104 Z0.000000 I0.745276 J1.759793
G02 X27.446133 Y22.583867 Z0.000000 I1.864221 J2.411922
G02 X26.910160 Y23.218750 Z0.000000 I6.649184 J6.156971
G02 X26.793459 Y23.370604 Z0.000000 I2476.060732 J1903.107256
G02 X26.620907 Y23.595254 Z0.000000 I492.974533 J378.826212
G02 X26.449189 Y23.819069 Z0.000000 I356.136722 J273.417667
G02 X26.304692 Y24.007810 Z0.000000 I130.028967 J99.697595
G01 X25.900395 Y24.447270 Z0.000000
G01 X26.087895 Y23.703120 Z0.000000
G02 X26.470713 Y22.844418 Z0.000000 I-8.608389 J-4.352385
G02 X26.697949 Y22.144880 Z0.000000 I-6.067592 J-2.357663
G02 X26.823836 Y21.423520 Z0.000000 I-4.180817 J-1.101272
G02 X26.789066 Y21.042970 Z0.000000 I-1.068385 J-0.094247
G01 X26.111332 Y20.339840 Z0.000000
G01 X25.830430 Y20.235660 Z0.000000
G02 X25.689039 Y20.214088 Z0.000000 I-0.251942 J1.177155
G02 X25.457035 Y20.199220 Z0.000000 I-0.381731 J4.139143
G02 X25.070305 Y20.202164 Z0.000000 I-0.159674 J4.427037
G02 X24.783359 Y20.235921 Z0.000000 I0.112564 J2.193266
G02 X24.505697 Y20.309381 Z0.000000 I0.345408 J1.867068
G02 X24.224613 Y20.427730 Z0.000000 I0.780266 J2.246121
G01 X23.775395 Y21.955080 Z0.000000
G02 X23.893491 Y22.489879 Z0.000000 I4.681268 J-0.753290
G02 X24.092074 Y23.084446 Z0.000000 I6.389423 J-1.803603
G02 X24.344758 Y23.657936 Z0.000000 I6.432300 J-2.491705
G02 X24.636723 Y24.177730 Z0.000000 I5.205728 J-2.582130
G01 X24.683593 Y24.435550 Z0.000000
G01 X24.298827 Y24.119140 Z0.000000
G02 X24.119504 Y23.865549 Z0.000000 I-2.875259 J1.843002
G02 X23.742900 Y23.397874 Z0.000000 I-13.976431 J10.869286
G02 X23.349590 Y22.942253 Z0.000000 I-13.417563 J11.185023
G02 X23.146483 Y22.736330 Z0.000000 I-2.194636 J1.961493
G01 X21.927733 Y22.029300 Z0.000000
G01 X20.864061 Y22.738554 Z0.000000
G02 X20.473569 Y23.443568 Z0.000000 I2.446569 J1.815749
G02 X20.335937 Y24.173830 Z0.000000 I1.862203 J0.729069
G01 X20.738280 Y24.921880 Z0.000000
G02 X21.154180 Y25.153463 Z0.000000 I1.428932 J-2.076969
G02 X21.717243 Y25.349364 Z0.000000 I1.523633 J-3.472135
G02 X22.307539 Y25.468122 Z0.000000 I1.325084 J-5.059972
G02 X23.152343 Y25.554690 Z0.000000 I1.536523 J-10.829301
G01 X24.052733 Y25.693360 Z0.000000
G01 X23.513671 Y25.869140 Z0.000000
G02 X23.086370 Y25.887297 Z0.000000 I0.009149 J5.252308
G02 X22.657168 Y25.940729 Z0.000000 I0.442079 J5.301664
G02 X22.233283 Y26.028026 Z0.000000 I0.918525 J5.532809
G02 X21.781249 Y26.156250 Z0.000000 I1.620764 J6.574658
G01 X20.525390 Y27.017580 Z0.000000
G01 X20.502308 Y27.820219 Z0.000000
G02 X20.680897 Y28.230177 Z0.000000 I1.761356 J-0.523415
G02 X21.027343 Y28.705080 Z0.000000 I2.602442 J-1.534686
G01 X21.879374 Y29.239160 Z0.000000
G01 X22.837890 Y28.841800 Z0.000000
G02 X23.122835 Y28.598794 Z0.000000 I-2.282614 J-2.965118
G02 X23.476980 Y28.241001 Z0.000000 I-5.031487 J-5.334354
G02 X23.806705 Y27.862129 Z0.000000 I-6.192115 J-5.721788
G02 X24.119140 Y27.455080 Z0.000000 I-6.259234 J-5.127779
G01 X24.716796 Y26.785160 Z0.000000
G01 X24.744136 Y27.080080 Z0.000000
G01 X23.937495 Y29.261720 Z0.000000
G02 X23.923780 Y29.864094 Z0.000000 I2.582455 J0.360142
G02 X24.032095 Y30.252035 Z0.000000 I1.124745 J-0.104943
G01 X24.683589 Y30.800780 Z0.000000
G01 X24.683594 Y30.800780 Z0.000000
G00 Z2.000000

(End cutting path id path34)


(Start cutting path id path34)
(Change tool to Default tool)

G00 Z2.000000
G00 X25.337891 Y26.603520

G01 Z0.000000 F100.0(Penetrate)
G01 X24.328125 Y25.654300 Z0.000000 F400.000000
G01 X24.484624 Y25.008536 Z0.000000
G01 X25.019531 Y24.609380 Z0.000000
G01 X25.998047 Y24.789060 Z0.000000
G01 X26.319555 Y25.926893 Z0.000000
G03 X25.986257 Y26.381119 Z0.000000 I-0.944721 J-0.343813
G03 X25.337891 Y26.603520 Z0.000000 I-0.656047 J-0.856284
G01 X25.337891 Y26.603520 Z0.000000
G00 Z2.000000

(End cutting path id path34)


(Start cutting path id path34)
(Change tool to Default tool)

G00 Z2.000000
G00 X25.337891 Y26.343750

G01 Z0.000000 F100.0(Penetrate)
G01 X25.779297 Y24.957030 Z0.000000 F400.000000
G01 X24.693359 Y25.166020 Z0.000000
G01 X24.714839 Y26.029300 Z0.000000
G01 X25.337886 Y26.343750 Z0.000000
G01 X25.337891 Y26.343750 Z0.000000
G00 Z2.000000

(End cutting path id path34)


(Footer)
M5
G00 X0.0000 Y0.0000
M2
(Using default footer. To add your own footer create file footer in the output dir.)
(end)
%