%
(Header)
(Generated by gcodetools from Inkscape.)
(Using default header. To add your own header create file "header" in the output dir.)
M3
(Header end.)
G21 (All units in mm)

(Start cutting path id: path178)
(Change tool to Default tool)

G00 Z2.000000
G00 X23.424760 Y-24.079450

G01 Z0.000000 F100.0(Penetrate)
G03 X23.105489 Y-24.056664 Z0.000000 I-2.666832 J-35.118448 F400.000000
G03 X22.556002 Y-24.021017 Z0.000000 I-9.541723 J-142.832481
G03 X22.001428 Y-23.987259 Z0.000000 I-8.473465 J-134.625905
G03 X21.756147 Y-23.974390 Z0.000000 I-1.140359 J-19.391644
G01 X21.511674 Y-23.949090 Z0.000000
G01 X21.464084 Y-23.694660 Z0.000000
G01 X21.758954 Y-22.838130 Z0.000000
G02 X21.818213 Y-22.776620 Z0.000000 I0.753605 J-0.666730
G02 X21.914607 Y-22.688826 Z0.000000 I1.970183 J-2.066357
G02 X22.014549 Y-22.605648 Z0.000000 I1.957690 J-2.250605
G02 X22.092285 Y-22.548170 Z0.000000 I0.845061 J-1.061603
G01 X22.110875 Y-22.341790 Z0.000000
G01 X21.971230 Y-22.159740 Z0.000000
G01 X21.603869 Y-22.137240 Z0.000000
G03 X21.212981 Y-22.139160 Z0.000000 I-0.136793 J-11.941661
G03 X20.907876 Y-22.152102 Z0.000000 I0.153861 J-7.229820
G03 X20.604321 Y-22.179598 Z0.000000 I0.360685 J-5.671488
G03 X20.365868 Y-22.215640 Z0.000000 I0.428925 J-3.644533
G01 X20.231751 Y-22.240440 Z0.000000
G01 X20.198991 Y-22.439580 Z0.000000
G01 X20.165461 Y-22.661540 Z0.000000
G01 X20.227501 Y-22.706240 Z0.000000
G01 X20.364197 Y-22.766440 Z0.000000
G01 X20.913758 Y-23.535980 Z0.000000
G01 X20.943108 Y-23.758050 Z0.000000
G01 X20.916158 Y-23.916670 Z0.000000
G01 X20.102799 Y-24.043450 Z0.000000
G03 X19.572278 Y-23.979616 Z0.000000 I-1.499799 J-10.228204
G03 X19.174416 Y-23.957831 Z0.000000 I-0.476640 J-5.061081
G03 X18.778047 Y-23.969667 Z0.000000 I-0.067778 J-4.373149
G03 X18.367471 Y-24.016550 Z0.000000 I0.403348 J-5.353528
G01 X18.223281 Y-24.019550 Z0.000000
G01 X18.132601 Y-23.709480 Z0.000000
G01 X18.618519 Y-22.965940 Z0.000000
G02 X18.661340 Y-22.938167 Z0.000000 I15.928208 J-24.511491
G02 X18.714498 Y-22.903796 Z0.000000 I31.888423 J-49.260281
G02 X18.767818 Y-22.869401 Z0.000000 I32.312518 J-50.033646
G02 X18.805770 Y-22.844990 Z0.000000 I15.839795 J-24.584221
G01 X18.917080 Y-22.746090 Z0.000000
G01 X18.928180 Y-22.639400 Z0.000000
G01 X18.865960 Y-22.412010 Z0.000000
G01 X18.816030 Y-22.248860 Z0.000000
G01 X18.677923 Y-22.241860 Z0.000000
G03 X18.617377 Y-22.239805 Z0.000000 I-0.085264 J-1.619161
G03 X18.411135 Y-22.237735 Z0.000000 I-0.301821 J-19.796206
G03 X18.209917 Y-22.237449 Z0.000000 I-0.142506 J-29.518791
G03 X17.963646 Y-22.238860 Z0.000000 I0.065505 J-32.934691
G01 X17.317419 Y-22.235860 Z0.000000
G01 X17.033755 Y-22.097830 Z0.000000
G01 X17.033630 Y-21.826390 Z0.000000
G01 X17.141613 Y-21.583250 Z0.000000
G03 X17.241772 Y-21.390589 Z0.000000 I-5.677584 J3.073985
G03 X17.314916 Y-21.234616 Z0.000000 I-3.198240 J1.594942
G03 X17.380057 Y-21.075511 Z0.000000 I-3.051183 J1.342111
G03 X17.444778 Y-20.894030 Z0.000000 I-4.449833 J1.689226
G03 X17.508701 Y-20.690905 Z0.000000 I-5.787639 J1.932964
G03 X17.592251 Y-20.382597 Z0.000000 I-6.720024 J1.986575
G03 X17.675537 Y-20.033566 Z0.000000 I-22.898405 J5.648448
G03 X17.920918 Y-18.963800 Z0.000000 I-463.763515 J106.940619
G02 X18.236127 Y-17.586990 Z0.000000 I933.627593 J-213.021150
G02 X18.330378 Y-17.192902 Z0.000000 I22.054037 J-5.066193
G02 X18.424351 Y-16.855783 Z0.000000 I6.033933 J-1.500332
G02 X18.514761 Y-16.575520 Z0.000000 I11.674820 J-3.611458
G01 X18.599351 Y-16.324460 Z0.000000
G01 X18.730673 Y-16.403560 Z0.000000
G01 X18.859631 Y-16.488960 Z0.000000
G01 X19.381330 Y-16.489180 Z0.000000
G01 X20.033022 Y-16.437480 Z0.000000
G01 X20.107652 Y-16.237580 Z0.000000
G02 X20.115168 Y-16.190087 Z0.000000 I2.709381 J-0.404385
G02 X20.129706 Y-16.105385 Z0.000000 I9.915589 J-1.658350
G02 X20.144753 Y-16.021641 Z0.000000 I11.924427 J-2.099261
G02 X20.159792 Y-15.941570 Z0.000000 I9.150725 J-1.677340
G01 X20.195642 Y-15.748300 Z0.000000
G01 X20.061525 Y-15.706300 Z0.000000
G01 X18.519183 Y-15.691500 Z0.000000
G02 X17.877010 Y-15.686839 Z0.000000 I1.584289 J262.493801
G02 X17.417252 Y-15.682350 Z0.000000 I1.522485 J179.493916
G02 X16.940531 Y-15.675943 Z0.000000 I1.099216 J99.532427
G02 X16.883064 Y-15.673800 Z0.000000 I0.021228 J1.340638
G01 X16.604856 Y-15.547850 Z0.000000
G01 X16.528446 Y-15.152490 Z0.000000
G01 X16.408394 Y-14.685710 Z0.000000
G01 X16.176135 Y-14.443560 Z0.000000
G02 X16.025197 Y-14.308225 Z0.000000 I0.976373 J1.240784
G02 X15.898117 Y-14.160234 Z0.000000 I1.054533 J1.034081
G02 X15.791900 Y-13.996710 Z0.000000 I1.158541 J0.868789
G02 X15.708609 Y-13.820110 Z0.000000 I1.255246 J0.699960
G01 X15.675651 Y-13.721933 Z0.000000
G02 X15.657206 Y-13.659575 Z0.000000 I3.028914 J0.929830
G02 X15.641199 Y-13.600490 Z0.000000 I2.305059 J0.656167
G01 X15.507418 Y-13.286870 Z0.000000
G01 X15.030432 Y-12.984720 Z0.000000
G01 X14.482926 Y-12.742130 Z0.000000
G01 X14.161797 Y-12.747130 Z0.000000
G01 X13.595624 Y-12.664630 Z0.000000
G01 X13.133414 Y-12.282760 Z0.000000
G01 X13.135014 Y-11.993200 Z0.000000
G01 X13.604587 Y-11.607000 Z0.000000
G01 X13.866759 Y-11.549800 Z0.000000
G01 X14.341331 Y-11.771150 Z0.000000
G01 X14.611679 Y-12.278060 Z0.000000
G01 X14.588549 Y-12.405890 Z0.000000
G01 X14.579649 Y-12.453490 Z0.000000
G01 X14.911065 Y-12.596493 Z0.000000
G02 X15.188097 Y-12.721809 Z0.000000 I-14.341794 J-32.073606
G02 X15.339414 Y-12.793240 Z0.000000 I-2.923189 J-6.388400
G01 X15.567517 Y-12.899130 Z0.000000
G01 X15.622847 Y-12.768750 Z0.000000
G01 X15.678122 Y-12.617455 Z0.000000
G01 X15.708107 Y-12.469640 Z0.000000
G01 X16.288574 Y-11.682370 Z0.000000
G01 X16.600586 Y-11.191640 Z0.000000
G01 X16.648336 Y-10.980910 Z0.000000
G01 X16.692406 Y-10.869880 Z0.000000
G01 X16.793758 Y-10.909880 Z0.000000
G03 X16.882605 Y-10.943019 Z0.000000 I0.599926 J1.472752
G03 X16.993333 Y-10.978100 Z0.000000 I0.916293 J2.699852
G01 X17.178034 Y-11.023040 Z0.000000
G01 X18.369610 Y-11.036740 Z0.000000
G02 X18.957791 Y-11.039946 Z0.000000 I-0.668435 J-176.613073
G02 X19.339220 Y-11.043640 Z0.000000 I-0.527934 J-74.198007
G02 X19.718281 Y-11.049800 Z0.000000 I-0.581708 J-47.461154
G02 X19.953219 Y-11.055940 Z0.000000 I-0.404180 J-19.963538
G03 X20.204667 Y-11.062522 Z0.000000 I0.577869 J17.269167
G03 X20.652036 Y-11.068702 Z0.000000 I0.832144 J44.040981
G03 X21.114692 Y-11.071612 Z0.000000 I0.825957 J94.551461
G03 X22.062980 Y-11.074340 Z0.000000 I1.886789 J491.066964
G03 X23.462211 Y-11.073842 Z0.000000 I0.595510 J292.724457
G03 X24.054263 Y-11.067327 Z0.000000 I-0.098434 J35.850547
G03 X24.613390 Y-11.046272 Z0.000000 I-0.293200 J15.220399
G03 X24.987757 Y-11.018240 Z0.000000 I-0.561383 J10.011009
G02 X25.110022 Y-11.009839 Z0.000000 I0.230210 J-2.456511
G02 X25.212715 Y-11.008802 Z0.000000 I0.066734 J-1.523872
G02 X25.315238 Y-11.014687 Z0.000000 I-0.035862 J-1.520775
G02 X25.436533 Y-11.028840 Z0.000000 I-0.221690 J-2.426838
G01 X25.694015 Y-11.254810 Z0.000000
G01 X25.718185 Y-11.346510 Z0.000000
G01 X25.834190 Y-11.398710 Z0.000000
G02 X26.250938 Y-11.645531 Z0.000000 I-0.864185 J-1.934384
G02 X26.567999 Y-11.956286 Z0.000000 I-1.067213 J-1.405997
G02 X26.800304 Y-12.336197 Z0.000000 I-1.452066 J-1.148879
G02 X26.968373 Y-12.832200 Z0.000000 I-2.349271 J-1.072517
G03 X26.979901 Y-12.882494 Z0.000000 I133.838352 J30.650990
G03 X26.988744 Y-12.921010 Z0.000000 I104.353158 J23.939156
G03 X26.997877 Y-12.960695 Z0.000000 I63.793205 J14.659460
G03 X26.999823 Y-12.969080 Z0.000000 I2.657061 J0.612324
G01 X27.004323 Y-12.988180 Z0.000000
G01 X27.115413 Y-12.971680 Z0.000000
G01 X27.405638 Y-12.902980 Z0.000000
G02 X27.439373 Y-12.889906 Z0.000000 I0.568405 J-1.416666
G02 X27.520909 Y-12.859800 Z0.000000 I3.668921 J-9.810918
G02 X27.601226 Y-12.830783 Z0.000000 I5.090096 J-13.963307
G02 X27.689877 Y-12.799340 Z0.000000 I5.326343 J-14.876489
G03 X27.992790 Y-12.685338 Z0.000000 I-2.431633 J6.920488
G03 X28.173517 Y-12.603768 Z0.000000 I-0.881229 J2.193443
G03 X28.342080 Y-12.505535 Z0.000000 I-0.710425 J1.412796
G03 X28.472945 Y-12.405570 Z0.000000 I-0.727557 J1.088092
G01 X28.779162 Y-12.288430 Z0.000000
G01 X28.968225 Y-12.309830 Z0.000000
G01 X29.315613 Y-12.573950 Z0.000000
G01 X29.375783 Y-12.818700 Z0.000000
G01 X29.333523 Y-12.974800 Z0.000000
G01 X28.854129 Y-13.280610 Z0.000000
G01 X28.208591 Y-12.957190 Z0.000000
G01 X28.140141 Y-12.877990 Z0.000000
G01 X27.525649 Y-13.097820 Z0.000000
G01 X27.345107 Y-13.154020 Z0.000000
G01 X26.999195 Y-13.276560 Z0.000000
G01 X26.831276 Y-13.552860 Z0.000000
G02 X26.653102 Y-13.922609 Z0.000000 I-2.580557 J1.015712
G02 X26.471001 Y-14.172965 Z0.000000 I-1.270392 J0.732639
G02 X26.239404 Y-14.374724 Z0.000000 I-0.955697 J0.863230
G02 X25.945858 Y-14.533120 Z0.000000 I-0.918260 J1.350552
G01 X25.605694 Y-14.754640 Z0.000000
G01 X25.536214 Y-15.098250 Z0.000000
G01 X25.643227 Y-15.464470 Z0.000000
G01 X25.703077 Y-15.577690 Z0.000000
G01 X25.426230 Y-15.673790 Z0.000000
G01 X24.513204 Y-15.709190 Z0.000000
G02 X23.916734 Y-15.719195 Z0.000000 I-2.232358 J115.306657
G02 X23.510068 Y-15.722903 Z0.000000 I-0.569177 J40.122298
G02 X23.104532 Y-15.722389 Z0.000000 I-0.154437 J38.132521
G02 X22.555518 Y-15.717190 Z0.000000 I0.626868 J95.196768
G01 X21.799637 Y-15.712190 Z0.000000
G01 X21.831517 Y-16.404890 Z0.000000
G01 X21.968970 Y-16.439590 Z0.000000
G03 X22.062053 Y-16.446608 Z0.000000 I0.133218 J1.146090
G03 X22.256001 Y-16.446902 Z0.000000 I0.101396 J2.913172
G03 X22.473786 Y-16.437787 Z0.000000 I-0.343556 J10.814779
G03 X23.120452 Y-16.402990 Z0.000000 I-9.048216 J174.175934
G01 X23.569227 Y-16.385890 Z0.000000
G01 X23.707800 Y-16.462090 Z0.000000
G01 X23.968295 Y-16.988460 Z0.000000
G02 X24.020767 Y-17.124435 Z0.000000 I-1.606314 J-0.697985
G02 X24.194653 Y-17.655060 Z0.000000 I-26.450533 J-8.961649
G02 X24.357889 Y-18.180064 Z0.000000 I-50.128317 J-15.873888
G02 X24.594000 Y-18.964380 Z0.000000 I-102.882309 J-31.399481
G02 X24.657463 Y-19.181413 Z0.000000 I-26.242964 J-7.791550
G02 X24.698588 Y-19.329340 Z0.000000 I-8.027083 J-2.311271
G02 X24.737247 Y-19.478640 Z0.000000 I-8.661323 J-2.322377
G02 X24.796935 Y-19.721210 Z0.000000 I-34.632942 J-8.650599
G03 X24.867271 Y-19.997710 Z0.000000 I12.229987 J2.963859
G03 X24.932562 Y-20.225775 Z0.000000 I6.231174 J1.660512
G03 X25.006253 Y-20.453988 Z0.000000 I7.586924 J2.323834
G03 X25.134243 Y-20.822470 Z0.000000 I26.916790 J9.142919
G01 X25.429636 Y-21.819490 Z0.000000
G01 X25.008242 Y-22.190910 Z0.000000
G02 X24.822399 Y-22.199279 Z0.000000 I-0.196507 J2.296025
G02 X24.504448 Y-22.194997 Z0.000000 I-0.040666 J8.787884
G02 X24.187083 Y-22.179286 Z0.000000 I0.279970 J8.868650
G02 X23.997369 Y-22.159110 Z0.000000 I0.166484 J2.467412
G01 X23.846903 Y-22.144210 Z0.000000
G01 X23.620567 Y-22.676950 Z0.000000
G01 X23.671677 Y-22.724550 Z0.000000
G01 X23.909135 Y-22.988810 Z0.000000
G01 X24.084169 Y-23.567350 Z0.000000
G01 X24.140549 Y-23.821040 Z0.000000
G01 X24.188239 Y-23.944400 Z0.000000
G01 X24.035772 Y-24.069340 Z0.000000
G01 X23.837718 Y-24.100640 Z0.000000
G02 X23.781536 Y-24.100101 Z0.000000 I-0.015254 J1.338222
G02 X23.663129 Y-24.095431 Z0.000000 I0.205184 J6.706241
G02 X23.546500 Y-24.089015 Z0.000000 I0.419767 J8.693382
G02 X23.424805 Y-24.080540 Z0.000000 I0.478251 J7.745305
G01 X23.424760 Y-24.079450 Z0.000000
G00 Z2.000000

(End cutting path id: path178)


(Start cutting path id: path178)
(Change tool to Default tool)

G00 Z2.000000
G00 X23.679602 Y-23.771740

G01 Z0.000000 F100.0(Penetrate)
G01 X23.522749 Y-23.003300 Z0.000000 F400.000000
G01 X23.224925 Y-22.782121 Z0.000000
G01 X22.888293 Y-22.637840 Z0.000000
G01 X22.339264 Y-22.739880 Z0.000000
G01 X21.754346 Y-23.416640 Z0.000000
G01 X21.752346 Y-23.712830 Z0.000000
G01 X21.759546 Y-23.735530 Z0.000000
G01 X22.641161 Y-23.795930 Z0.000000
G01 X23.589578 Y-23.854830 Z0.000000
G01 X23.656378 Y-23.853830 Z0.000000
G01 X23.679602 Y-23.771740 Z0.000000
G00 Z2.000000

(End cutting path id: path178)


(Start cutting path id: path178)
(Change tool to Default tool)

G00 Z2.000000
G00 X20.641698 Y-23.807340

G01 Z0.000000 F100.0(Penetrate)
G01 X20.626828 Y-23.737140 Z0.000000 F400.000000
G01 X20.254773 Y-23.036220 Z0.000000
G01 X19.752025 Y-22.866270 Z0.000000
G03 X19.651632 Y-22.869955 Z0.000000 I-0.000000 J-1.369391
G03 X19.556394 Y-22.881420 Z0.000000 I0.075763 J-1.030645
G03 X19.461506 Y-22.900978 Z0.000000 I0.216501 J-1.290365
G03 X19.319313 Y-22.938870 Z0.000000 I0.869695 J-3.549304
G03 X19.193776 Y-22.978346 Z0.000000 I0.743964 J-2.585202
G03 X19.096765 Y-23.015505 Z0.000000 I0.457979 J-1.340871
G03 X19.002794 Y-23.059686 Z0.000000 I0.549342 J-1.290444
G03 X18.889598 Y-23.121750 Z0.000000 I1.183977 J-2.293667
G01 X18.440755 Y-23.616890 Z0.000000
G01 X18.437655 Y-23.702990 Z0.000000
G01 X19.530268 Y-23.760390 Z0.000000
G01 X20.624695 Y-23.811490 Z0.000000
G01 X20.641755 Y-23.807490 Z0.000000
G01 X20.641698 Y-23.807340 Z0.000000
G00 Z2.000000

(End cutting path id: path178)


(Start cutting path id: path178)
(Change tool to Default tool)

G00 Z2.000000
G00 X19.614200 Y-22.606340

G01 Z0.000000 F100.0(Penetrate)
G01 X19.926016 Y-22.556840 Z0.000000 F400.000000
G01 X19.899906 Y-22.282950 Z0.000000
G01 X19.894206 Y-22.253450 Z0.000000
G01 X19.503315 Y-22.253450 Z0.000000
G01 X19.112430 Y-22.259450 Z0.000000
G01 X19.298483 Y-22.652010 Z0.000000
G01 X19.614240 Y-22.606010 Z0.000000
G01 X19.614200 Y-22.606340 Z0.000000
G00 Z2.000000

(End cutting path id: path178)


(Start cutting path id: path178)
(Change tool to Default tool)

G00 Z2.000000
G00 X23.470399 Y-22.345540

G01 Z0.000000 F100.0(Penetrate)
G01 X23.483949 Y-22.139350 Z0.000000 F400.000000
G01 X23.047350 Y-22.133350 Z0.000000
G01 X22.522051 Y-22.150750 Z0.000000
G01 X22.400443 Y-22.180150 Z0.000000
G01 X22.371683 Y-22.190150 Z0.000000
G01 X22.409143 Y-22.242350 Z0.000000
G01 X22.480073 Y-22.324650 Z0.000000
G01 X22.513543 Y-22.354750 Z0.000000
G01 X22.682866 Y-22.357750 Z0.000000
G01 X22.843622 Y-22.364512 Z0.000000
G01 X22.970831 Y-22.387850 Z0.000000
G02 X23.064260 Y-22.412797 Z0.000000 I-0.324807 J-1.403839
G02 X23.188031 Y-22.453140 Z0.000000 I-0.917533 J-3.025032
G02 X23.310314 Y-22.498785 Z0.000000 I-0.996341 J-2.855812
G02 X23.388657 Y-22.533670 Z0.000000 I-0.395659 J-0.993962
G01 X23.446467 Y-22.553870 Z0.000000
G01 X23.470397 Y-22.346050 Z0.000000
G01 X23.470399 Y-22.345540 Z0.000000
G00 Z2.000000

(End cutting path id: path178)


(Start cutting path id: path178)
(Change tool to Default tool)

G00 Z2.000000
G00 X19.679807 Y-21.999660

G01 Z0.000000 F100.0(Penetrate)
G03 X19.828486 Y-21.992571 Z0.000000 I-0.816464 J18.685233 F400.000000
G03 X20.039775 Y-21.981010 Z0.000000 I-1.799836 J34.831753
G03 X20.253991 Y-21.968247 Z0.000000 I-3.402757 J58.914615
G03 X20.613466 Y-21.945860 Z0.000000 I-12.751641 J207.658493
G02 X21.046799 Y-21.922979 Z0.000000 I1.329631 J-21.066825
G02 X21.579956 Y-21.904772 Z0.000000 I1.358366 J-31.962055
G02 X22.113238 Y-21.894731 Z0.000000 I0.986968 J-38.249107
G02 X22.738701 Y-21.891060 Z0.000000 I0.619194 J-52.216351
G02 X23.247850 Y-21.895181 Z0.000000 I-0.004174 J-31.972862
G02 X23.646362 Y-21.905944 Z0.000000 I-0.292373 J-18.208376
G02 X24.043367 Y-21.926188 Z0.000000 I-0.580017 J-15.277402
G02 X24.412346 Y-21.954660 Z0.000000 I-0.905340 J-14.137780
G01 X24.892850 Y-21.957660 Z0.000000
G01 X25.106378 Y-21.875960 Z0.000000
G01 X24.914555 Y-21.152770 Z0.000000
G03 X24.898273 Y-21.096741 Z0.000000 I-7.134282 J-2.042860
G03 X24.834576 Y-20.881425 Z0.000000 I-122.330632 J-36.071719
G03 X24.772276 Y-20.671908 Z0.000000 I-200.172614 J-59.408308
G03 X24.693679 Y-20.408570 Z0.000000 I-266.778849 J-79.480007
G02 X24.553915 Y-19.937764 Z0.000000 I120.140116 J35.920964
G02 X24.386260 Y-19.364816 Z0.000000 I147.290916 J43.411137
G02 X24.217615 Y-18.781556 Z0.000000 I230.857535 J67.066418
G02 X23.930068 Y-17.780050 Z0.000000 I823.500359 J236.981425
G01 X23.580929 Y-16.776830 Z0.000000
G01 X23.387863 Y-16.697630 Z0.000000
G01 X22.062926 Y-16.692630 Z0.000000
G01 X20.706316 Y-16.711230 Z0.000000
G01 X19.824240 Y-16.733130 Z0.000000
G01 X18.854888 Y-16.783230 Z0.000000
G01 X18.590776 Y-17.390540 Z0.000000
G02 X18.401581 Y-18.274444 Z0.000000 I-125.795805 J26.463820
G02 X18.264061 Y-18.889092 Z0.000000 I-53.680965 J11.687699
G02 X18.119517 Y-19.497762 Z0.000000 I-41.691351 J9.579165
G02 X17.976426 Y-20.064380 Z0.000000 I-41.161981 J10.093470
G02 X17.806932 Y-20.697048 Z0.000000 I-42.264727 J10.983852
G02 X17.721644 Y-20.978179 Z0.000000 I-5.598895 J1.545060
G02 X17.620845 Y-21.239888 Z0.000000 I-2.785759 J0.922686
G02 X17.515079 Y-21.457270 Z0.000000 I-2.959421 J1.305466
G01 X17.396548 Y-21.825850 Z0.000000
G01 X17.383348 Y-21.950010 Z0.000000
G01 X17.998188 Y-21.990410 Z0.000000
G02 X18.181048 Y-21.994473 Z0.000000 I-1.973229 J-92.930162
G02 X18.324808 Y-21.997897 Z0.000000 I-2.688310 J-115.865243
G02 X18.472617 Y-22.001621 Z0.000000 I-2.420102 J-99.007467
G02 X18.508864 Y-22.002610 Z0.000000 I-0.348393 J-13.432044
G03 X18.708196 Y-22.006127 Z0.000000 I0.245238 J8.248071
G03 X19.116852 Y-22.006735 Z0.000000 I0.278867 J50.125606
G03 X19.529732 Y-22.003876 Z0.000000 I-0.123321 J47.628389
G03 X19.679806 Y-21.999610 Z0.000000 I-0.049246 J4.374007
G01 X19.679807 Y-21.999660 Z0.000000
G00 Z2.000000

(End cutting path id: path178)


(Start cutting path id: path178)
(Change tool to Default tool)

G00 Z2.000000
G00 X19.318661 Y-20.242680

G01 Z0.000000 F100.0(Penetrate)
G01 X19.273521 Y-20.167880 Z0.000000 F400.000000
G01 X19.154257 Y-19.388207 Z0.000000
G02 X19.054397 Y-18.684456 Z0.000000 I130.147857 J18.826429
G02 X19.024542 Y-18.446670 Z0.000000 I8.888554 J1.236754
G01 X19.008782 Y-17.872300 Z0.000000
G01 X19.130928 Y-17.760670 Z0.000000
G01 X19.411576 Y-17.744570 Z0.000000
G02 X19.511634 Y-17.745395 Z0.000000 I-0.011021 J-7.405555
G02 X19.639016 Y-17.747929 Z0.000000 I-0.195437 J-13.028232
G02 X19.766532 Y-17.751754 Z0.000000 I-0.303343 J-12.239840
G02 X19.859876 Y-17.755870 Z0.000000 I-0.185347 J-5.263695
G03 X20.090946 Y-17.763334 Z0.000000 I0.316681 J6.223319
G03 X20.572588 Y-17.766345 Z0.000000 I0.441878 J32.159876
G03 X21.047340 Y-17.763050 Z0.000000 I-0.051453 J41.617420
G03 X21.521336 Y-17.753870 Z0.000000 I-0.445957 J35.267794
G01 X22.800069 Y-17.738670 Z0.000000
G01 X23.011754 Y-18.038830 Z0.000000
G01 X23.053114 Y-18.215570 Z0.000000
G01 X23.053238 Y-19.183140 Z0.000000
G01 X23.040468 Y-20.150800 Z0.000000
G01 X22.893455 Y-20.164600 Z0.000000
G02 X22.835109 Y-20.169835 Z0.000000 I-0.170283 J1.570014
G02 X22.721458 Y-20.177050 Z0.000000 I-0.534935 J7.527932
G02 X22.609108 Y-20.182704 Z0.000000 I-0.563753 J10.083361
G02 X22.496263 Y-20.187100 Z0.000000 I-0.437023 J9.767603
G03 X22.383156 Y-20.191190 Z0.000000 I1.217963 J-35.245669
G03 X22.257432 Y-20.196125 Z0.000000 I1.606221 J-42.526483
G03 X22.130837 Y-20.201516 Z0.000000 I1.395716 J-34.266702
G03 X22.052646 Y-20.205300 Z0.000000 I0.438931 J-9.878627
G02 X21.973746 Y-20.208366 Z0.000000 I-0.173087 J3.437499
G02 X21.756943 Y-20.213487 Z0.000000 I-0.791301 J28.905573
G02 X21.544531 Y-20.217165 Z0.000000 I-0.824767 J41.505110
G02 X21.299529 Y-20.220100 Z0.000000 I-0.652061 J44.200243
G02 X20.894619 Y-20.221554 Z0.000000 I-0.336699 J37.376877
G02 X20.610519 Y-20.218450 Z0.000000 I0.028484 J15.608808
G02 X20.328393 Y-20.209567 Z0.000000 I0.246873 J12.325063
G02 X20.053943 Y-20.194900 Z0.000000 I0.563517 J13.119851
G01 X19.845980 Y-20.194250 Z0.000000
G01 X19.608908 Y-20.237400 Z0.000000
G01 X19.409518 Y-20.268400 Z0.000000
G01 X19.318668 Y-20.242500 Z0.000000
G01 X19.318661 Y-20.242680 Z0.000000
G00 Z2.000000

(End cutting path id: path178)


(Start cutting path id: path178)
(Change tool to Default tool)

G00 Z2.000000
G00 X22.104225 Y-19.969410

G01 Z0.000000 F100.0(Penetrate)
G01 X22.712653 Y-19.927010 Z0.000000 F400.000000
G01 X22.730263 Y-19.812550 Z0.000000
G01 X22.732563 Y-19.094770 Z0.000000
G01 X22.684583 Y-18.064400 Z0.000000
G01 X22.527948 Y-17.983600 Z0.000000
G01 X21.400924 Y-17.986600 Z0.000000
G03 X20.393949 Y-17.998808 Z0.000000 I2.118542 J-216.276875
G03 X20.046079 Y-18.007600 Z0.000000 I0.232464 J-16.084951
G01 X19.362525 Y-18.042600 Z0.000000
G01 X19.348315 Y-18.202930 Z0.000000
G03 X19.341151 Y-18.471571 Z0.000000 I3.065056 J-0.216156
G03 X19.358012 Y-18.794946 Z0.000000 I4.624984 J0.079013
G03 X19.396103 Y-19.116374 Z0.000000 I5.225753 J0.456320
G03 X19.458074 Y-19.459900 Z0.000000 I5.819619 J0.872492
G01 X19.581064 Y-19.939980 Z0.000000
G01 X19.894586 Y-19.953480 Z0.000000
G02 X20.026462 Y-19.956694 Z0.000000 I-2.504575 J-105.465957
G02 X20.185121 Y-19.960742 Z0.000000 I-3.844496 J-153.784236
G02 X20.344351 Y-19.964982 Z0.000000 I-3.485006 J-133.877173
G02 X20.453591 Y-19.968080 Z0.000000 I-1.310338 J-48.135758
G03 X20.764635 Y-19.974069 Z0.000000 I0.440952 J14.820661
G03 X21.334530 Y-19.976755 Z0.000000 I0.616639 J70.378496
G03 X21.914575 Y-19.974503 Z0.000000 I0.042366 J63.787906
G03 X22.104259 Y-19.969080 Z0.000000 I-0.039689 J4.708359
G01 X22.104225 Y-19.969410 Z0.000000
G00 Z2.000000

(End cutting path id: path178)


(Start cutting path id: path178)
(Change tool to Default tool)

G00 Z2.000000
G00 X21.031291 Y-16.436100

G01 Z0.000000 F100.0(Penetrate)
G01 X21.480067 Y-16.411900 Z0.000000 F400.000000
G01 X21.482767 Y-16.060670 Z0.000000
G01 X21.485467 Y-15.709450 Z0.000000
G01 X20.999936 Y-15.709450 Z0.000000
G01 X20.514405 Y-15.709450 Z0.000000
G01 X20.499175 Y-15.741450 Z0.000000
G01 X20.421955 Y-16.062790 Z0.000000
G01 X20.434675 Y-16.382420 Z0.000000
G01 X20.446165 Y-16.461720 Z0.000000
G01 X20.514335 Y-16.461020 Z0.000000
G01 X20.694308 Y-16.453415 Z0.000000
G03 X20.839722 Y-16.446187 Z0.000000 I-2.313790 J48.016802
G03 X21.031282 Y-16.436120 Z0.000000 I-3.698067 J72.195082
G01 X21.031291 Y-16.436100 Z0.000000
G00 Z2.000000

(End cutting path id: path178)


(Start cutting path id: path178)
(Change tool to Default tool)

G00 Z2.000000
G00 X24.095344 Y-15.473900

G01 Z0.000000 F100.0(Penetrate)
G03 X24.207994 Y-15.469642 Z0.000000 I-0.601329 J17.401375 F400.000000
G03 X24.309931 Y-15.465087 Z0.000000 I-0.575742 J14.028780
G03 X24.413645 Y-15.459496 Z0.000000 I-0.449398 J9.300073
G03 X24.456427 Y-15.456200 Z0.000000 I-0.073057 J1.227641
G01 X25.241598 Y-15.375600 Z0.000000
G01 X25.270408 Y-14.775860 Z0.000000
G02 X25.280326 Y-14.517353 Z0.000000 I333.059202 J-12.647937
G02 X25.302840 Y-13.938562 Z0.000000 I1980.000311 J-76.738315
G02 X25.325141 Y-13.368968 Z0.000000 I2719.006781 J-106.205852
G02 X25.349148 Y-12.759160 Z0.000000 I2718.975801 J-106.700315
G01 X25.405448 Y-11.311210 Z0.000000
G01 X25.405551 Y-11.286310 Z0.000000
G01 X21.140437 Y-11.286310 Z0.000000
G01 X16.875315 Y-11.286310 Z0.000000
G01 X16.907265 Y-11.342510 Z0.000000
G01 X16.889635 Y-11.716870 Z0.000000
G01 X16.856195 Y-11.789370 Z0.000000
G01 X16.843805 Y-12.546200 Z0.000000
G02 X16.837860 Y-12.870950 Z0.000000 I-82.439370 J1.346758
G02 X16.830713 Y-13.196526 Z0.000000 I-97.170603 J1.970333
G02 X16.822221 Y-13.526030 Z0.000000 I-76.909522 J1.817323
G02 X16.816615 Y-13.697310 Z0.000000 I-17.828323 J0.497709
G03 X16.799966 Y-14.193501 Z0.000000 I62.353508 J-2.340620
G03 X16.794005 Y-14.464716 Z0.000000 I17.863004 J-0.528250
G01 X16.800585 Y-14.812160 Z0.000000
G01 X16.921416 Y-15.326610 Z0.000000
G01 X17.060083 Y-15.434220 Z0.000000
G01 X19.710760 Y-15.457520 Z0.000000
G02 X20.824043 Y-15.461207 Z0.000000 I-2.988705 J-1070.354127
G02 X21.727799 Y-15.465095 Z0.000000 I-3.684578 J-961.635112
G02 X22.654703 Y-15.470184 Z0.000000 I-3.076142 J-644.650012
G02 X22.919246 Y-15.472520 Z0.000000 I-0.313641 J-50.508099
G03 X23.177275 Y-15.475595 Z0.000000 I11.688720 J969.996619
G03 X23.390944 Y-15.478020 Z0.000000 I2.893576 J245.542918
G03 X23.609767 Y-15.480211 Z0.000000 I1.326625 J121.551941
G03 X23.677521 Y-15.480520 Z0.000000 I0.067754 J7.434364
G03 X23.744640 Y-15.480622 Z0.000000 I0.039449 J3.859205
G03 X23.864091 Y-15.479221 Z0.000000 I-0.093909 J13.098065
G03 X23.982349 Y-15.476833 Z0.000000 I-0.247091 J15.167170
G03 X24.095347 Y-15.473520 Z0.000000 I-0.260421 J10.809459
G01 X24.095344 Y-15.473900 Z0.000000
G00 Z2.000000

(End cutting path id: path178)


(Start cutting path id: path178)
(Change tool to Default tool)

G00 Z2.000000
G00 X22.635534 Y-14.734930

G01 Z0.000000 F100.0(Penetrate)
G02 X22.453738 Y-14.703101 Z0.000000 I0.373576 J2.668860 F400.000000
G02 X22.279743 Y-14.659752 Z0.000000 I0.504995 J2.397828
G02 X22.109210 Y-14.603999 Z0.000000 I0.705912 J2.447835
G02 X21.925197 Y-14.530110 Z0.000000 I1.113805 J3.039910
G01 X21.625912 Y-14.341310 Z0.000000
G01 X21.341318 Y-13.817395 Z0.000000
G02 X21.265319 Y-13.483606 Z0.000000 I1.929323 J0.614822
G02 X21.258413 Y-13.188090 Z0.000000 I1.266026 J0.177425
G01 X21.484848 Y-12.682100 Z0.000000
G03 X21.510075 Y-12.656159 Z0.000000 I-1.019722 J1.016889
G03 X21.562273 Y-12.600552 Z0.000000 I-5.442166 J5.160924
G03 X21.613235 Y-12.545291 Z0.000000 I-7.288133 J6.772073
G03 X21.665933 Y-12.487220 Z0.000000 I-6.857278 J6.275848
G02 X21.719240 Y-12.429464 Z0.000000 I2.287816 J-2.058117
G02 X21.778316 Y-12.368321 Z0.000000 I3.064695 J-2.901982
G02 X21.839212 Y-12.308008 Z0.000000 I2.559438 J-2.523252
G02 X21.876711 Y-12.273400 Z0.000000 I0.759772 J-0.785626
G02 X22.025041 Y-12.158208 Z0.000000 I1.007868 J-1.144707
G02 X22.193261 Y-12.056377 Z0.000000 I1.019799 J-1.494808
G02 X22.371796 Y-11.973907 Z0.000000 I0.808814 J-1.516458
G02 X22.532368 Y-11.923700 Z0.000000 I0.426200 J-1.081209
G01 X22.810918 Y-11.898900 Z0.000000
G01 X23.048201 Y-11.911000 Z0.000000
G01 X23.266440 Y-11.921700 Z0.000000
G01 X23.688270 Y-11.993000 Z0.000000
G01 X23.976396 Y-12.177090 Z0.000000
G02 X24.111455 Y-12.306331 Z0.000000 I-1.020993 J-1.202148
G02 X24.238197 Y-12.460090 Z0.000000 I-1.244017 J-1.154546
G01 X24.288126 Y-12.523864 Z0.000000
G03 X24.318293 Y-12.559902 Z0.000000 I1.767747 J1.449078
G03 X24.343121 Y-12.588080 Z0.000000 I0.947267 J0.809633
G01 X24.593366 Y-13.034570 Z0.000000
G01 X24.613356 Y-13.359550 Z0.000000
G02 X24.597783 Y-13.561116 Z0.000000 I-2.470280 J0.089464
G02 X24.568426 Y-13.723290 Z0.000000 I-1.340676 J0.158950
G02 X24.434418 Y-14.056730 Z0.000000 I-1.233639 J0.302146
G02 X24.223569 Y-14.320361 Z0.000000 I-0.974497 J0.563259
G02 X23.944353 Y-14.515369 Z0.000000 I-0.852136 J0.922706
G02 X23.546172 Y-14.667360 Z0.000000 I-0.893402 J1.742943
G02 X23.381858 Y-14.706524 Z0.000000 I-0.982365 J3.757277
G02 X23.261342 Y-14.727435 Z0.000000 I-0.318715 J1.479104
G02 X23.139290 Y-14.738744 Z0.000000 I-0.206043 J1.559384
G02 X22.960511 Y-14.744760 Z0.000000 I-0.241374 J4.513813
G01 X22.635535 Y-14.734760 Z0.000000
G01 X22.635534 Y-14.734930 Z0.000000
G00 Z2.000000

(End cutting path id: path178)


(Start cutting path id: path178)
(Change tool to Default tool)

G00 Z2.000000
G00 X23.221078 Y-14.516560

G01 Z0.000000 F100.0(Penetrate)
G03 X23.478460 Y-14.466226 Z0.000000 I-0.620193 J3.854538 F400.000000
G03 X23.648644 Y-14.416502 Z0.000000 I-0.346502 J1.502054
G03 X23.809229 Y-14.345853 Z0.000000 I-0.404986 J1.138357
G03 X23.959172 Y-14.253940 Z0.000000 I-0.656022 J1.238465
G01 X24.318954 Y-13.690180 Z0.000000
G01 X24.348474 Y-13.422340 Z0.000000
G01 X24.324054 Y-13.165300 Z0.000000
G03 X24.250725 Y-12.950229 Z0.000000 I-1.229562 J-0.299185
G03 X24.131685 Y-12.734947 Z0.000000 I-1.299231 J-0.577858
G03 X23.979154 Y-12.539724 Z0.000000 I-1.438563 J-0.966776
G03 X23.750837 Y-12.312350 Z0.000000 I-2.269764 J-2.050855
G01 X23.389588 Y-12.134600 Z0.000000
G01 X23.159873 Y-12.163900 Z0.000000
G01 X22.788449 Y-12.202000 Z0.000000
G01 X22.552884 Y-12.206000 Z0.000000
G03 X22.371701 Y-12.272613 Z0.000000 I0.415734 J-1.410489
G03 X22.186336 Y-12.367436 Z0.000000 I0.770915 J-1.735609
G03 X22.012795 Y-12.482665 Z0.000000 I0.897714 J-1.540296
G03 X21.887213 Y-12.593980 Z0.000000 I0.625884 J-0.832600
G03 X21.778279 Y-12.721267 Z0.000000 I1.059969 J-1.017395
G03 X21.697845 Y-12.843511 Z0.000000 I0.846109 J-0.644304
G03 X21.635281 Y-12.975642 Z0.000000 I0.899136 J-0.506618
G03 X21.586893 Y-13.126980 Z0.000000 I1.197215 J-0.466196
G01 X21.581993 Y-13.606590 Z0.000000
G03 X21.615974 Y-13.733472 Z0.000000 I1.215826 J0.257626
G03 X21.665085 Y-13.863999 Z0.000000 I1.463553 J0.476161
G01 X21.786917 Y-14.084350 Z0.000000
G01 X22.357888 Y-14.431860 Z0.000000
G03 X22.468216 Y-14.453416 Z0.000000 I0.511517 J2.324919
G03 X22.724108 Y-14.495426 Z0.000000 I3.301649 J19.310665
G01 X23.040543 Y-14.539320 Z0.000000
G01 X23.221085 Y-14.516620 Z0.000000
G01 X23.221078 Y-14.516560 Z0.000000
G00 Z2.000000

(End cutting path id: path178)


(Start cutting path id: path178)
(Change tool to Default tool)

G00 Z2.000000
G00 X18.769259 Y-14.403440

G01 Z0.000000 F100.0(Penetrate)
G01 X18.687749 Y-14.392315 Z0.000000 F400.000000
G01 X18.604192 Y-14.375940 Z0.000000
G02 X18.220247 Y-14.229226 Z0.000000 I0.354328 J1.503008
G02 X17.913334 Y-14.004280 Z0.000000 I0.680823 J1.250750
G02 X17.679430 Y-13.705724 Z0.000000 I0.944386 J0.980783
G02 X17.539662 Y-13.350920 Z0.000000 I1.107332 J0.641143
G01 X18.011651 Y-12.312910 Z0.000000
G02 X18.099673 Y-12.244102 Z0.000000 I0.911445 J-1.075246
G02 X18.190919 Y-12.184401 Z0.000000 I0.716355 J-0.995294
G02 X18.287159 Y-12.132405 Z0.000000 I0.705056 J-1.189924
G02 X18.413054 Y-12.075100 Z0.000000 I1.063057 J-2.168521
G02 X18.774830 Y-11.959479 Z0.000000 I0.827240 J-1.964613
G02 X19.135969 Y-11.914055 Z0.000000 I0.418906 J-1.872154
G02 X19.500173 Y-11.935826 Z0.000000 I0.061237 J-2.032788
G02 X19.910024 Y-12.030000 Z0.000000 I-0.410794 J-2.726749
G01 X20.469631 Y-12.469040 Z0.000000
G02 X20.537004 Y-12.612661 Z0.000000 I-1.012599 J-0.562618
G02 X20.587732 Y-12.772436 Z0.000000 I-1.247872 J-0.484137
G02 X20.618445 Y-12.937299 Z0.000000 I-1.343559 J-0.335592
G02 X20.628899 Y-13.106680 Z0.000000 I-1.359945 J-0.168949
G02 X20.619531 Y-13.271844 Z0.000000 I-1.468908 J0.000470
G02 X20.593637 Y-13.411680 Z0.000000 I-1.008710 J0.114472
G01 X20.478447 Y-13.688120 Z0.000000
G02 X20.330159 Y-13.893694 Z0.000000 I-1.031247 J0.587605
G02 X20.133922 Y-14.073020 Z0.000000 I-1.005333 J0.903111
G02 X19.906708 Y-14.212368 Z0.000000 I-0.870877 J1.165090
G02 X19.636289 Y-14.317610 Z0.000000 I-0.736839 J1.493267
G02 X19.528259 Y-14.346058 Z0.000000 I-0.588143 J2.014086
G02 X19.425767 Y-14.366110 Z0.000000 I-0.317303 J1.349899
G02 X19.320422 Y-14.379646 Z0.000000 I-0.296564 J1.891324
G02 X19.138181 Y-14.395710 Z0.000000 I-0.753231 J7.503445
G02 X18.970077 Y-14.407888 Z0.000000 I-1.728390 J22.692005
G02 X18.906237 Y-14.410772 Z0.000000 I-0.093373 J1.358695
G01 X18.769259 Y-14.403710 Z0.000000
G01 X18.769259 Y-14.403440 Z0.000000
G00 Z2.000000

(End cutting path id: path178)


(Start cutting path id: path178)
(Change tool to Default tool)

G00 Z2.000000
G00 X19.169131 Y-14.177540

G01 Z0.000000 F100.0(Penetrate)
G03 X19.452738 Y-14.147845 Z0.000000 I-0.114189 J2.459762 F400.000000
G03 X19.659236 Y-14.096161 Z0.000000 I-0.207414 J1.267055
G03 X19.851285 Y-14.008668 Z0.000000 I-0.343347 J1.008174
G03 X20.020577 Y-13.887590 Z0.000000 I-0.556582 J0.957113
G01 X20.353452 Y-13.144350 Z0.000000
G01 X20.035651 Y-12.384100 Z0.000000
G01 X19.602432 Y-12.193660 Z0.000000
G03 X19.210524 Y-12.159082 Z0.000000 I-0.391617 J-2.200345
G03 X18.873438 Y-12.194189 Z0.000000 I0.000214 J-1.637909
G03 X18.552331 Y-12.299489 Z0.000000 I0.318511 J-1.513519
G03 X18.244142 Y-12.479530 Z0.000000 I0.722206 J-1.590049
G01 X17.846431 Y-13.172420 Z0.000000
G01 X18.192621 Y-13.901880 Z0.000000
G03 X18.314218 Y-13.989295 Z0.000000 I1.295271 J1.673476
G03 X18.417643 Y-14.051447 Z0.000000 I0.715384 J1.073308
G03 X18.526407 Y-14.102801 Z0.000000 I0.536557 J0.995555
G03 X18.637978 Y-14.141900 Z0.000000 I0.439914 J1.076571
G01 X19.169131 Y-14.177500 Z0.000000
G01 X19.169131 Y-14.177540 Z0.000000
G00 Z2.000000

(End cutting path id: path178)


(Start cutting path id: path178)
(Change tool to Default tool)

G00 Z2.000000
G00 X25.729944 Y-14.357660

G01 Z0.000000 F100.0(Penetrate)
G03 X26.054295 Y-14.185996 Z0.000000 I-0.309261 J0.976587 F400.000000
G03 X26.344185 Y-13.881859 Z0.000000 I-0.914909 J1.162275
G03 X26.546084 Y-13.508214 Z0.000000 I-1.403996 J1.000019
G03 X26.664779 Y-13.045180 Z0.000000 I-1.845338 J0.719768
G01 X26.509539 Y-12.377990 Z0.000000
G03 X26.341004 Y-12.127345 Z0.000000 I-1.477475 J-0.811481
G03 X26.144541 Y-11.925420 Z0.000000 I-1.216879 J-0.987424
G03 X25.914291 Y-11.764793 Z0.000000 I-0.915807 J-1.067421
G03 X25.686691 Y-11.672020 Z0.000000 I-0.491816 J-0.880997
G01 X25.663421 Y-11.759220 Z0.000000
G02 X25.663050 Y-11.800098 Z0.000000 I-2.252539 J0.000000
G02 X25.660496 Y-11.923766 Z0.000000 I-24.726712 J0.448807
G02 X25.657507 Y-12.044663 Z0.000000 I-38.484529 J0.891089
G02 X25.653521 Y-12.188100 Z0.000000 I-48.200361 J1.267571
G03 X25.642603 Y-12.563990 Z0.000000 I656.877230 J-19.267931
G03 X25.635327 Y-12.822647 Z0.000000 I205.046339 J-5.897046
G03 X25.628328 Y-13.082704 Z0.000000 I222.799308 J-6.126280
G03 X25.617261 Y-13.506890 Z0.000000 I889.757634 J-23.427464
G02 X25.610720 Y-13.753011 Z0.000000 I-182.795261 J4.735169
G02 X25.604951 Y-13.959385 Z0.000000 I-147.421146 J4.017483
G02 X25.598666 Y-14.170533 Z0.000000 I-94.932376 J2.720070
G02 X25.596271 Y-14.239080 Z0.000000 I-8.450284 J0.260936
G01 X25.590171 Y-14.395730 Z0.000000
G01 X25.619091 Y-14.389730 Z0.000000
G01 X25.729947 Y-14.357730 Z0.000000
G01 X25.729944 Y-14.357660 Z0.000000
G00 Z2.000000

(End cutting path id: path178)


(Start cutting path id: path178)
(Change tool to Default tool)

G00 Z2.000000
G00 X16.454648 Y-14.157240

G01 Z0.000000 F100.0(Penetrate)
G03 X16.470352 Y-14.034880 Z0.000000 I-1.763266 J0.288486 F400.000000
G03 X16.501705 Y-13.665956 Z0.000000 I-22.119695 J2.065610
G03 X16.526827 Y-13.304775 Z0.000000 I-25.780415 J1.974682
G03 X16.538478 Y-13.062780 Z0.000000 I-8.433777 J0.527325
G01 X16.548668 Y-12.847030 Z0.000000
G01 X16.560178 Y-12.340630 Z0.000000
G01 X16.567478 Y-11.873220 Z0.000000
G01 X16.542608 Y-11.884620 Z0.000000
G01 X15.939493 Y-12.878450 Z0.000000
G03 X15.927005 Y-12.997551 Z0.000000 I1.302708 J-0.196796
G03 X15.922237 Y-13.154876 Z0.000000 I2.737122 J-0.161694
G01 X15.938633 Y-13.418320 Z0.000000
G01 X16.243602 Y-14.061680 Z0.000000
G01 X16.436615 Y-14.195710 Z0.000000
G01 X16.454645 Y-14.157310 Z0.000000
G01 X16.454648 Y-14.157240 Z0.000000
G00 Z2.000000

(End cutting path id: path178)


(Start cutting path id: path178)
(Change tool to Default tool)

G00 Z2.000000
G00 X28.892598 Y-12.988520

G01 Z0.000000 F100.0(Penetrate)
G01 X29.058573 Y-12.739470 Z0.000000 F400.000000
G01 X28.835527 Y-12.550180 Z0.000000
G01 X28.731930 Y-12.568780 Z0.000000
G01 X28.573008 Y-12.817480 Z0.000000
G01 X28.892598 Y-12.988540 Z0.000000
G01 X28.892598 Y-12.988520 Z0.000000
G00 Z2.000000

(End cutting path id: path178)


(Start cutting path id: path178)
(Change tool to Default tool)

G00 Z2.000000
G00 X14.034604 Y-12.453260

G01 Z0.000000 F100.0(Penetrate)
G01 X14.209298 Y-12.350780 Z0.000000 F400.000000
G01 X14.263428 Y-12.255580 Z0.000000
G01 X14.206298 Y-12.052820 Z0.000000
G01 X13.991661 Y-11.857260 Z0.000000
G01 X13.838217 Y-11.831760 Z0.000000
G01 X13.551131 Y-11.950620 Z0.000000
G01 X13.438221 Y-12.142810 Z0.000000
G01 X13.548731 Y-12.294280 Z0.000000
G01 X13.905302 Y-12.509880 Z0.000000
G01 X14.034607 Y-12.453280 Z0.000000
G01 X14.034604 Y-12.453260 Z0.000000
G00 Z2.000000

(End cutting path id: path178)


(Footer)
M5
G00 X0.0000 Y0.0000
M2
(Using default footer. To add your own footer create file "footer" in the output dir.)
(end)
%